images/moon.svg

<svg width="111" height="110" viewBox="0 0 111 110" fill="none" xmlns="http://www.w3.org/2000/svg">
<circle cx="55.4336" cy="55.0004" r="44.9073" transform="rotate(-15 55.4336 55.0004)" fill="#F7F6FF" stroke="#0D0B33" stroke-width="1.3"/>
<path d="M67.0527 98.3775C91.0092 91.9583 105.226 67.334 98.8069 43.3775C95.4451 30.8309 87.0898 20.9557 76.4522 15.3173C88.4866 50.0716 73.5099 80.9318 38.776 96.7084C47.4669 100.186 57.315 100.987 67.0527 98.3775Z" fill="#79EFBD"/>
<path d="M38.776 96.7084C47.4669 100.186 57.315 100.987 67.0527 98.3775C91.0092 91.9583 105.226 67.334 98.8069 43.3775C95.4451 30.8309 87.0898 20.9557 76.4522 15.3173M38.776 96.7084C73.5099 80.9318 88.4866 50.0716 76.4522 15.3173M38.776 96.7084C38.5299 96.6099 38.2846 96.5092 38.0403 96.4064M76.4522 15.3173C76.2393 15.2045 76.0256 15.0934 75.8109 14.9839" stroke="#0D0B33" stroke-width="1.3"/>
<ellipse cx="45.3359" cy="25.931" rx="1.89749" ry="2.52999" transform="rotate(49.0641 45.3359 25.931)" fill="#0D0B33"/>
<ellipse cx="25.0937" cy="23.9622" rx="1.89749" ry="2.52999" transform="rotate(49.0641 25.0937 23.9622)" fill="#0D0B33"/>
<ellipse cx="67.162" cy="88.5487" rx="1.58124" ry="1.26499" transform="rotate(-6.62574 67.162 88.5487)" fill="#0D0B33"/>
<path d="M51.6645 99.3031C51.4878 100.101 50.208 99.6103 48.8218 99.3035C47.4356 98.9967 46.1117 99.1528 46.2884 98.3544C46.4651 97.556 48.0252 96.7546 49.4114 97.0614C50.7975 97.3682 51.8412 98.5047 51.6645 99.3031Z" fill="#0D0B33"/>
<path d="M99.6297 61.1606C100.42 61.3722 99.8726 62.6291 99.5051 64.0005C99.1377 65.3718 99.2353 66.7013 98.4455 66.4897C97.6557 66.2781 96.9236 64.6842 97.2911 63.3129C97.6585 61.9415 98.8399 60.9489 99.6297 61.1606Z" fill="#0D0B33"/>
<ellipse cx="45.975" cy="75.8993" rx="2.52999" ry="1.89749" transform="rotate(25.569 45.975 75.8993)" fill="#0D0B33"/>
<ellipse cx="26.3555" cy="43.543" rx="3.62337" ry="2.71752" transform="rotate(103.887 26.3555 43.543)" fill="#0D0B33"/>
<ellipse cx="11.8197" cy="61.0344" rx="1.26499" ry="1.58124" fill="#0D0B33"/>
<ellipse cx="85.5108" cy="70.8398" rx="1.58124" ry="1.26499" transform="rotate(-35.8405 85.5108 70.8398)" fill="#0D0B33"/>
<ellipse cx="82.9749" cy="82.2231" rx="0.948746" ry="0.632497" transform="rotate(-39.1719 82.9749 82.2231)" fill="#0D0B33"/>
<circle cx="86.4567" cy="43.6423" r="0.632497" fill="#0D0B33"/>
<circle cx="53.5661" cy="20.8727" r="0.632497" fill="#0D0B33"/>
<circle cx="84.5541" cy="37.9505" r="1.26499" fill="#0D0B33"/>
<circle cx="32.6908" cy="49.9662" r="1.26499" fill="#0D0B33"/>
<ellipse cx="93.7256" cy="52.4981" rx="0.948746" ry="0.632497" transform="rotate(-85.6781 93.7256 52.4981)" fill="#0D0B33"/>
<ellipse cx="36.1631" cy="80.3269" rx="0.948746" ry="0.632497" transform="rotate(20.9902 36.1631 80.3269)" fill="#0D0B33"/>
</svg>

<svg xmlns="http://www.w3.org/2000/svg" width="111" height="110" fill="none"><circle cx="55.434" cy="55" r="44.907" fill="#F7F6FF" stroke="#0D0B33" stroke-width="1.3" transform="rotate(-15 55.434 55)"/><path fill="#79EFBD" d="M67.053 98.377c23.956-6.419 38.173-31.043 31.754-55-3.362-12.546-11.717-22.421-22.355-28.06 12.035 34.755-2.942 65.615-37.676 81.391a44.709 44.709 0 0 0 28.277 1.67Z"/><path stroke="#0D0B33" stroke-width="1.3" d="M38.776 96.708a44.709 44.709 0 0 0 28.277 1.67c23.956-6.42 38.173-31.044 31.754-55-3.362-12.547-11.717-22.422-22.355-28.06m-37.676 81.39c34.734-15.776 49.71-46.636 37.676-81.39m-37.676 81.39c-.246-.098-.491-.199-.736-.302m38.412-81.089a46.336 46.336 0 0 0-.641-.333"/><ellipse cx="45.336" cy="25.931" fill="#0D0B33" rx="1.897" ry="2.53" transform="rotate(49.064 45.336 25.931)"/><ellipse cx="25.094" cy="23.962" fill="#0D0B33" rx="1.897" ry="2.53" transform="rotate(49.064 25.094 23.962)"/><ellipse cx="67.162" cy="88.549" fill="#0D0B33" rx="1.581" ry="1.265" transform="rotate(-6.626 67.162 88.549)"/><path fill="#0D0B33" d="M51.664 99.303c-.176.798-1.456.307-2.842 0-1.386-.306-2.71-.15-2.534-.949.177-.798 1.737-1.6 3.123-1.293 1.386.307 2.43 1.444 2.253 2.242ZM99.63 61.16c.79.212.243 1.47-.125 2.84-.367 1.372-.27 2.701-1.06 2.49-.79-.212-1.521-1.806-1.154-3.177.368-1.372 1.549-2.364 2.339-2.152Z"/><ellipse cx="45.975" cy="75.899" fill="#0D0B33" rx="2.53" ry="1.897" transform="rotate(25.569 45.975 75.9)"/><ellipse cx="26.355" cy="43.543" fill="#0D0B33" rx="3.623" ry="2.718" transform="rotate(103.887 26.355 43.543)"/><ellipse cx="11.82" cy="61.034" fill="#0D0B33" rx="1.265" ry="1.581"/><ellipse cx="85.511" cy="70.84" fill="#0D0B33" rx="1.581" ry="1.265" transform="rotate(-35.84 85.51 70.84)"/><ellipse cx="82.975" cy="82.223" fill="#0D0B33" rx=".949" ry=".632" transform="rotate(-39.172 82.975 82.223)"/><circle cx="86.457" cy="43.642" r=".632" fill="#0D0B33"/><circle cx="53.566" cy="20.873" r=".632" fill="#0D0B33"/><circle cx="84.554" cy="37.95" r="1.265" fill="#0D0B33"/><circle cx="32.691" cy="49.966" r="1.265" fill="#0D0B33"/><ellipse cx="93.726" cy="52.498" fill="#0D0B33" rx=".949" ry=".632" transform="rotate(-85.678 93.726 52.498)"/><ellipse cx="36.163" cy="80.327" fill="#0D0B33" rx=".949" ry=".632" transform="rotate(20.99 36.163 80.327)"/></svg>
